build/img/clock.svg

<svg width="20" height="20" viewBox="0 0 20 20" fill="none" xmlns="http://www.w3.org/2000/svg">
<path fill-rule="evenodd" clip-rule="evenodd" d="M10 18C14.4183 18 18 14.4183 18 10C18 5.58172 14.4183 2 10 2C5.58172 2 2 5.58172 2 10C2 14.4183 5.58172 18 10 18ZM10 20C15.5228 20 20 15.5228 20 10C20 4.47715 15.5228 0 10 0C4.47715 0 0 4.47715 0 10C0 15.5228 4.47715 20 10 20Z" fill="#C7C7D5"/>
<path d="M9 4H11V11H9V4Z" fill="#C7C7D5"/>
<path d="M9 14H11V16H9V14Z" fill="#C7C7D5"/>
<path d="M4 11V9H6V11H4Z" fill="#C7C7D5"/>
<path d="M9 11V9H16V11H9Z" fill="#C7C7D5"/>
</svg>

<svg width="20" height="20" fill="none" xmlns="http://www.w3.org/2000/svg"><path fill-rule="evenodd" clip-rule="evenodd" d="M10 18a8 8 0 1 0 0-16 8 8 0 0 0 0 16zm0 2c5.523 0 10-4.477 10-10S15.523 0 10 0 0 4.477 0 10s4.477 10 10 10z" fill="#C7C7D5"/><path d="M9 4h2v7H9V4zm0 10h2v2H9v-2zm-5-3V9h2v2H4z" fill="#C7C7D5"/><path d="M9 11V9h7v2H9z" fill="#C7C7D5"/></svg>
